X:1355
T: Love Won't You Marry Me
S: "Roche Collection of Traditional Irish Music" [II/35/286]
L: 1/8
M: 4/4
Q: 325
R: hornpipe (%fling)
K: G
E | D2 DE GABA | GEED GE E2 | D2 DE GABd | eBdB A2 G :|
z | d2 dc Bc d2 | e2 ed ce e2 | d2 dB GABd | eBdB A2 G :|
